app/images/cart-bg.svg

<svg width="467" height="793" viewBox="0 0 467 793" fill="none" xmlns="http://www.w3.org/2000/svg">
<path opacity="0.5" d="M294 530C325.2 527.6 359 577 372 602C357.667 606.667 319.8 616 283 616C246.2 616 223 606.667 216 602C213.666 604 212.8 600 228 568C247 528 255 533 294 530Z" fill="#D2DFE6"/>
<path opacity="0.5" d="M374 377C354 381 339.667 406 335 418H390C402.8 418 429.333 409.333 441 405C427 394 394 373 374 377Z" fill="#D2DFE6"/>
<path opacity="0.5" d="M286 115C303 147 312 171 312 181H251C226 181 241 186 189 173C137 160 186 152 180 138C174 124 153 121 165 87C177 53 185 87 201 87C217 87 221 85 251 71C281 57 269 83 286 115Z" fill="#D2DFE6"/>
<path opacity="0.5" d="M36.9998 356C36.9998 391.2 63.6665 450 76.9998 475C58.3332 486.667 20.9998 518 20.9998 550C20.9998 590 17.9998 606 54.9998 633C91.9998 660 71.9998 519 76.9998 550C80.9998 574.8 136.666 619 164 638C167.333 620.333 172 579.4 164 557C154 529 83.9998 493 92.9998 495C102 497 115 506 154 519C193 532 182 514 174 487C167.6 465.4 121.333 463.333 98.9998 465C108.333 441.333 127.2 388 128 364C128.8 340 119.666 264.667 115 230C111 234 99.1998 246 83.9998 262C64.9998 282 36.9998 312 36.9998 356Z" fill="#D2DFE6"/>
<path d="M405.607 412.184C409.628 412.803 427.136 416.084 439.014 409.398C450.893 402.713 459.123 391.756 465 388.97C460.36 397.018 447.368 413.855 432.52 416.827C413.959 420.541 401.895 416.827 376.838 416.827C356.793 416.827 340.026 420.541 334.149 422.398C340.645 414.66 356.34 407.641 371.27 409.398C387.045 411.255 400.039 412.184 405.607 412.184ZM405.607 412.184C414.578 408.47 432.52 396.956 432.52 380.613C432.52 360.185 429.735 319.328 388.902 319.328C348.069 319.328 271.043 338.828 277.539 380.613C284.036 422.398 344.357 453.969 334.149 477.183C323.94 500.397 295.172 501.326 292.388 483.683C289.604 466.041 300.739 458.612 307.236 470.683C315.643 486.302 293.316 499.469 277.539 498.54C261.763 497.612 245.058 496.683 245.986 483.683C246.914 470.683 260.835 469.31 265.475 483.683C270.115 498.056 259.907 510.611 237.634 505.969C215.362 501.326 214.901 460.244 250.627 466.041C284.962 471.612 278.297 498.505 283.488 524.54M283.488 524.54C283.915 526.683 281.253 539.397 286.82 549.611C292.388 559.825 304.452 558.154 334.149 573.754C363.846 589.353 374.982 593.872 376.838 596.039C371.579 576.849 352.71 550.54 332.293 535.683C310.801 520.043 301.5 523.611 283.488 524.54ZM283.488 524.54C276.865 522.683 261.764 524.54 245.986 535.683C234.398 543.867 219.693 582.111 210.722 601.61C229.591 589.539 263.62 567.254 292.388 565.397C321.171 563.538 353.328 589.539 371.27 601.61C358.896 609.348 332.293 621.11 292.388 627.61C246.443 635.094 215.362 614.61 215.362 614.61C215.362 614.61 285.83 561.955 313.733 583.968C361.99 622.039 283.882 638.077 280.324 658.253C274.756 689.824 335.91 678.681 322.085 723.252C313.733 750.18 268.26 732.758 210.722 747.394C173.14 756.955 171.745 770.089 151.328 759.466C128.128 747.394 81.7263 645.253 78.9423 614.61C76.715 590.096 78.0142 548.682 78.9423 531.04C65.9499 533.825 39.5941 550.725 38.1092 596.039C36.6244 641.353 38.1092 713.038 38.1092 713.038C38.1092 713.038 55.5564 693.538 51.1019 652.681C45.5338 601.61 36.2528 504.112 78.9423 483.683C121.632 463.255 155.041 455.826 175.457 477.183C191.79 494.269 200.204 501.635 202.37 503.183C200.514 512.778 188.635 530.483 155.969 524.54C123.302 518.597 85.4388 503.183 85.4388 503.183C85.4388 503.183 90.4501 495.383 121.632 490.183C160.609 483.683 155.232 497.903 167.105 503.183C175.457 506.897 186.903 503.183 190.306 503.183M22.3331 791.037C46.1524 769.68 94.1622 719.538 95.6471 689.824C97.5031 652.681 62.8853 652.321 70.5904 570.039C73.3729 540.325 108.64 488.549 138.337 510.611C168.033 532.674 160.609 539.397 175.457 583.968C187.336 619.624 203.916 644.634 210.722 652.681C189.687 658.872 149.578 656.851 121.632 623.896C95.6471 593.253 80.3788 531.792 96.1552 531.792C111.932 531.792 133.276 548.506 147.197 568.934C158.333 585.277 170.508 612.134 175.457 623.896C163.702 620.491 138.336 607.739 130.912 583.968C121.632 554.254 104.375 510.611 78.9423 514.326C53.5091 518.04 20.4774 522.683 38.1092 503.183C55.9491 483.453 81.0624 496.683 95.6471 483.683C110.232 470.683 114.208 436.327 104.927 393.613C97.5031 359.442 101.834 309.423 104.927 288.686C103.071 301.066 101.586 330.099 110.495 347.185C121.632 368.542 133.561 383.399 121.632 405.684C109.702 427.97 92.8623 486.469 78.9423 470.683C65.0223 454.898 30.6854 282.186 70.5904 247.829C102.514 220.343 134.624 213.472 146.688 213.472C137.717 215.02 120.889 223.501 125.344 245.043C130.912 271.971 165.248 316.542 151.328 369.47C137.408 422.398 78.0146 449.326 70.5904 503.183C63.1662 557.039 29.1421 538.321 -1.79618 581.182C-25.9256 614.61 -25.9241 646.181 -1.79547 702.823C17.5074 748.137 22.3331 780.513 22.3331 791.037Z" stroke="#868C96"/>
<path d="M308.134 157.671C309.633 147.94 310.389 121.54 301.426 93.7931C290.222 59.1099 245.054 33.3161 228.27 39.8826C211.487 46.4491 224.463 52.7791 227.747 68.1944C231.031 83.6097 214.876 86.6499 218.703 96.0378C222.529 105.426 251.444 102.463 264.869 107.276C275.608 111.126 295.568 143.899 304.206 159.805C298.569 146.304 284.054 115.202 271.08 98.8065C254.863 78.3117 228.101 71.1875 190.578 71.1809C153.054 71.1743 135.791 107.303 138.722 119.725C141.652 132.148 172.351 130.127 178.762 141.933C185.174 153.74 171.191 168.977 176.664 182.567C182.136 196.157 202.012 177.719 229.729 169.037C257.446 160.355 264.289 184.666 286.149 187.446C308.008 190.226 301.95 181.413 281.607 179.084C261.264 176.754 162.559 187.041 167.681 233.945C174.138 293.074 217.28 286.634 259.282 271.469C292.884 259.336 304.211 220.316 305.674 202.323C302.173 207.196 291.029 223.898 271.91 231.487C258.831 236.679 246.241 231.1 226.737 249.012C197.884 275.51 262.507 299.656 293.953 268.565C317.019 245.76 308.226 188.641 314.416 165.726C318.852 149.303 332.587 155.858 329.934 173.223C327.282 190.588 259.314 514.3 145.265 434.445C104.418 405.844 162.173 316.811 200.02 360.182C244.58 411.248 141.913 441.562 107.213 470.646M308.134 157.671C316.184 154.149 330.695 142.873 336.987 131.173C345.214 115.877 342.325 104.435 338.536 103.579C332.737 102.269 333.235 109.43 334.065 111.74M308.134 157.671C317.758 156.267 336.914 147.775 348.844 141.296C361.121 134.629 367.234 128.125 365.196 122.225C362.972 115.788 357.657 121.223 356.985 123.499" stroke="#868C96"/>
</svg>

<svg width="467" height="793" fill="none" xmlns="http://www.w3.org/2000/svg"><path opacity=".5" d="M294 530c31.2-2.4 65 47 78 72-14.333 4.667-52.2 14-89 14s-60-9.333-67-14c-2.334 2-3.2-2 12-34 19-40 27-35 66-38zM374 377c-20 4-34.333 29-39 41h55c12.8 0 39.333-8.667 51-13-14-11-47-32-67-28zM286 115c17 32 26 56 26 66h-61c-25 0-10 5-62-8s-3-21-9-35-27-17-15-51 20 0 36 0 20-2 50-16 18 12 35 44zM37 356c0 35.2 26.666 94 40 119-18.667 11.667-56 43-56 75 0 40-3 56 34 83s17-114 22-83c4 24.8 59.666 69 87 88 3.333-17.667 8-58.6 0-81-10-28-80-64-71-62s22 11 61 24 28-5 20-32c-6.4-21.6-52.667-23.667-75-22 9.333-23.667 28.2-77 29-101 .8-24-8.334-99.333-13-134-4 4-15.8 16-31 32-19 20-47 50-47 94z" fill="#D2DFE6"/><path d="M405.607 412.184c4.021.619 21.529 3.9 33.407-2.786 11.879-6.685 20.109-17.642 25.986-20.428-4.64 8.048-17.632 24.885-32.48 27.857-18.561 3.714-30.625 0-55.682 0-20.045 0-36.812 3.714-42.689 5.571 6.496-7.738 22.191-14.757 37.121-13 15.775 1.857 28.769 2.786 34.337 2.786zm0 0c8.971-3.714 26.913-15.228 26.913-31.571 0-20.428-2.785-61.285-43.618-61.285s-117.859 19.5-111.363 61.285c6.497 41.785 66.818 73.356 56.61 96.57-10.209 23.214-38.977 24.143-41.761 6.5-2.784-17.642 8.351-25.071 14.848-13 8.407 15.619-13.92 28.786-29.697 27.857-15.776-.928-32.481-1.857-31.553-14.857.928-13 14.849-14.373 19.489 0 4.64 14.373-5.568 26.928-27.841 22.286-22.272-4.643-22.733-45.725 12.993-39.928 34.335 5.571 27.67 32.464 32.861 58.499m0 0c.427 2.143-2.235 14.857 3.332 25.071 5.568 10.214 17.632 8.543 47.329 24.143 29.697 15.599 40.833 20.118 42.689 22.285-5.259-19.19-24.128-45.499-44.545-60.356-21.492-15.64-30.793-12.072-48.805-11.143zm0 0c-6.623-1.857-21.724 0-37.502 11.143-11.588 8.184-26.293 46.428-35.264 65.927 18.869-12.071 52.898-34.356 81.666-36.213 28.783-1.859 60.94 24.142 78.882 36.213-12.374 7.738-38.977 19.5-78.882 26-45.945 7.484-77.026-13-77.026-13s70.468-52.655 98.371-30.642c48.257 38.071-29.851 54.109-33.409 74.285-5.568 31.571 55.586 20.428 41.761 64.999-8.352 26.928-53.825 9.506-111.363 24.142-37.582 9.561-38.977 22.695-59.394 12.072-23.2-12.072-69.602-114.213-72.386-144.856-2.227-24.514-.928-65.928 0-83.57-12.992 2.785-39.348 19.685-40.833 64.999-1.485 45.314 0 116.999 0 116.999s17.447-19.5 12.993-60.357c-5.568-51.071-14.85-148.569 27.84-168.998 42.69-20.428 76.099-27.857 96.515-6.5 16.333 17.086 24.747 24.452 26.913 26-1.856 9.595-13.735 27.3-46.401 21.357-32.667-5.943-70.53-21.357-70.53-21.357s5.011-7.8 36.193-13c38.977-6.5 33.6 7.72 45.473 13 8.352 3.714 19.798 0 23.201 0M22.333 791.037c23.82-21.357 71.83-71.499 73.314-101.213 1.856-37.143-32.762-37.503-25.057-119.785 2.783-29.714 38.05-81.49 67.747-59.428 29.696 22.063 22.272 28.786 37.12 73.357 11.879 35.656 28.459 60.666 35.265 68.713-21.035 6.191-61.144 4.17-89.09-28.785-25.985-30.643-41.253-92.104-25.477-92.104 15.777 0 37.121 16.714 51.042 37.142 11.136 16.343 23.311 43.2 28.26 54.962-11.755-3.405-37.121-16.157-44.545-39.928-9.28-29.714-26.537-73.357-51.97-69.642-25.433 3.714-58.465 8.357-40.833-11.143 17.84-19.73 42.953-6.5 57.538-19.5 14.585-13 18.561-47.356 9.28-90.07-7.424-34.171-3.093-84.19 0-104.927-1.856 12.38-3.341 41.413 5.568 58.499 11.137 21.357 23.066 36.214 11.137 58.499-11.93 22.286-28.77 80.785-42.69 64.999-13.92-15.785-48.257-188.497-8.352-222.854 31.924-27.486 64.034-34.357 76.098-34.357-8.971 1.548-25.799 10.029-21.344 31.571 5.568 26.928 39.904 71.499 25.984 124.427-13.92 52.928-73.313 79.856-80.738 133.713-7.424 53.856-41.448 35.138-72.386 77.999-24.13 33.428-24.128 64.999 0 121.641 19.303 45.314 24.13 77.69 24.13 88.214z" stroke="#868C96"/><path d="M308.134 157.671c1.499-9.731 2.255-36.131-6.708-63.878-11.204-34.683-56.372-60.477-73.156-53.91-16.783 6.566-3.807 12.896-.523 28.311 3.284 15.416-12.871 18.456-9.044 27.844 3.826 9.388 32.741 6.425 46.166 11.238 10.739 3.85 30.699 36.623 39.337 52.529-5.637-13.501-20.152-44.603-33.126-60.999-16.217-20.494-42.979-27.618-80.502-27.625-37.524-.007-54.787 36.122-51.856 48.544 2.93 12.423 33.629 10.402 40.04 22.208 6.412 11.807-7.571 27.044-2.098 40.634 5.472 13.59 25.348-4.848 53.065-13.53 27.717-8.682 34.56 15.629 56.42 18.409 21.859 2.78 15.801-6.033-4.542-8.362-20.343-2.33-119.048 7.957-113.926 54.861 6.457 59.129 49.599 52.689 91.601 37.524 33.602-12.133 44.929-51.153 46.392-69.146-3.501 4.873-14.645 21.575-33.764 29.164-13.079 5.192-25.669-.387-45.173 17.525-28.853 26.498 35.77 50.644 67.216 19.553 23.066-22.805 14.273-79.924 20.463-102.839 4.436-16.423 18.171-9.868 15.518 7.497-2.652 17.365-70.62 341.077-184.669 261.222-40.847-28.601 16.908-117.634 54.755-74.263 44.56 51.066-58.107 81.38-92.807 110.464m200.921-312.975c8.05-3.522 22.561-14.798 28.853-26.498 8.227-15.296 5.338-26.738 1.549-27.594-5.799-1.31-5.301 5.851-4.471 8.161m-25.931 45.931c9.624-1.404 28.78-9.896 40.71-16.375 12.277-6.667 18.39-13.171 16.352-19.071-2.224-6.437-7.539-1.002-8.211 1.274" stroke="#868C96"/></svg>
